X: 1
T:Polo -- Reel
M:2/4
L:1/16
C:J.OSWALD
R:reel
B:Ryan's Mammoth Collection
N:246
Z:Contributed by Ray Davies,  ray:davies99.freeserve.co.uk
K:D
u((3ABc)|\
.d2(cA) BdAF | GEFD EDCE | DEFG ABc"4"e | g"0"efd "4"ecAc |
.d2(cA) BdAF | GEFD EDCE | DFAF GBAF | EDCE D2:|
|:u"4"(A^G)|\
"0"Ac"4"ec Adfd | {f}e^def "0"ecAc | gefd ecdf | edcB Agfe |
.d2(cA) BdAF | GEFD EDCE | DFAF GBAF | EDCE D2:|
